src/lib/packages/icons/src/assets/filled/clipboard-search.svg

<svg width="24" height="24" viewBox="0 0 24 24" fill="none" xmlns="http://www.w3.org/2000/svg">
<path d="M13.583 12.917C13.583 14.112 12.611 15.084 11.417 15.084C10.222 15.084 9.25 14.112 9.25 12.917C9.25 11.722 10.222 10.75 11.417 10.75C12.611 10.75 13.583 11.722 13.583 12.917ZM9.5 7H14.5C15.5 7 16 6.5 16 5.5V4.5C16 3.5 15.5 3 14.5 3H9.5C8.5 3 8 3.5 8 4.5V5.5C8 6.5 8.5 7 9.5 7ZM20 8V18C20 20 19 21 17 21H7C5 21 4 20 4 18V8C4 6.258 4.75189 5.27701 6.26489 5.05701C6.38589 5.03901 6.5 5.13899 6.5 5.26099V5.49902C6.5 7.31902 7.68 8.49902 9.5 8.49902H14.5C16.32 8.49902 17.5 7.31902 17.5 5.49902V5.26099C17.5 5.13899 17.6151 5.03901 17.7351 5.05701C19.2481 5.27701 20 6.258 20 8ZM16.03 16.47L14.48 14.921C14.858 14.344 15.083 13.657 15.083 12.918C15.083 10.896 13.438 9.25098 11.417 9.25098C9.39499 9.25098 7.75 10.896 7.75 12.918C7.75 14.94 9.39499 16.585 11.417 16.585C12.157 16.585 12.8429 16.361 13.4199 15.983L14.97 17.532C15.116 17.678 15.308 17.752 15.5 17.752C15.692 17.752 15.884 17.679 16.03 17.532C16.323 17.237 16.323 16.762 16.03 16.47Z" fill="currentColor"/>
</svg>

<svg xmlns="http://www.w3.org/2000/svg" width="24" height="24" fill="none"><path fill="currentColor" d="M13.583 12.917a2.17 2.17 0 0 1-2.166 2.167 2.17 2.17 0 0 1-2.167-2.167 2.17 2.17 0 0 1 2.167-2.167 2.17 2.17 0 0 1 2.166 2.167ZM9.5 7h5c1 0 1.5-.5 1.5-1.5v-1c0-1-.5-1.5-1.5-1.5h-5C8.5 3 8 3.5 8 4.5v1C8 6.5 8.5 7 9.5 7ZM20 8v10c0 2-1 3-3 3H7c-2 0-3-1-3-3V8c0-1.742.752-2.723 2.265-2.943a.21.21 0 0 1 .235.204v.238c0 1.82 1.18 3 3 3h5c1.82 0 3-1.18 3-3v-.238a.21.21 0 0 1 .235-.204C19.248 5.277 20 6.258 20 8Zm-3.97 8.47-1.55-1.549a3.645 3.645 0 0 0 .603-2.003 3.67 3.67 0 0 0-3.666-3.667 3.671 3.671 0 0 0-3.667 3.667 3.671 3.671 0 0 0 3.667 3.667c.74 0 1.426-.224 2.003-.602l1.55 1.549a.748.748 0 0 0 1.06 0 .751.751 0 0 0 0-1.062Z"/></svg>
